X: 17925
T: House On Lonely Hill, The
R: reel
M: 4/4
K: Gmajor
|:DGGd cBc(d|d)dcB cBGD|DGGd cB B/c/(d|d)ggf d2 cB|
DGGd cBc(d|d)dcB cBGD|EGcB BGDG|1 GA A3 BBA:|2 GA A3 cdf||
|:fggd dcBG|Bcdg gB B/c/d|gB/c/ da c/d/e ab|ag ba|
fggd dcBG|Bcd(e e)dBG|EGc(B B)GDG|1 GA A3 cdf:|2 GA A3 BBA||

